raw/hero/review-success.svg

<svg width="220" height="160" viewBox="0 0 220 160" fill="none" xmlns="http://www.w3.org/2000/svg">
<rect x="63" y="34" width="94" height="110" rx="12" fill="url(#paint0_linear_6126_222839)"/>
<mask id="mask0_6126_222839" style="mask-type:alpha" maskUnits="userSpaceOnUse" x="63" y="34" width="94" height="110">
<rect x="63" y="34" width="94" height="110" rx="12" fill="url(#paint1_linear_6126_222839)"/>
</mask>
<g mask="url(#mask0_6126_222839)">
<rect x="72.4583" y="41.4583" width="75.0833" height="94.0833" fill="url(#paint2_linear_6126_222839)" stroke="white" stroke-width="0.916667"/>
<path opacity="0.8" d="M154 156C137.431 156 124 142.569 124 126C124 109.431 137.431 96 154 96C170.569 96 184 109.431 184 126C184 142.569 170.569 156 154 156Z" fill="url(#paint3_linear_6126_222839)"/>
<path d="M156.667 110.525V123.046C156.667 123.336 156.902 123.571 157.192 123.571H167.475C167.765 123.571 168 123.806 168 124.096V128.475C168 128.765 167.765 129 167.475 129H151.525C151.235 129 151 128.765 151 128.475V110.525C151 110.235 151.235 110 151.525 110H156.142C156.432 110 156.667 110.235 156.667 110.525Z" fill="url(#paint4_linear_6126_222839)"/>
</g>
<rect x="100" y="57" width="36" height="4" rx="0.5" fill="url(#paint5_linear_6126_222839)"/>
<rect opacity="0.7" x="100" y="82" width="36" height="4" rx="0.5" fill="url(#paint6_linear_6126_222839)"/>
<rect opacity="0.5" x="100" y="107" width="36" height="4" rx="0.5" fill="url(#paint7_linear_6126_222839)"/>
<rect x="100" y="65" width="21" height="4" rx="0.5" fill="url(#paint8_linear_6126_222839)"/>
<path fill-rule="evenodd" clip-rule="evenodd" d="M92.9232 54.3684C93.1298 54.1649 93.4622 54.1675 93.6657 54.374L95.6316 56.3698C95.8351 56.5764 95.8325 56.9088 95.626 57.1123L85.1887 67.3932C84.9749 67.6038 84.6282 67.5926 84.4285 67.3685L78.3494 60.5502C78.1564 60.3338 78.1754 60.002 78.3919 59.809L80.4829 57.9447C80.6993 57.7517 81.0312 57.7707 81.2241 57.9872L84.6094 61.7841C84.8092 62.0082 85.1559 62.0194 85.3697 61.8088L92.9232 54.3684Z" fill="#BBC1D5"/>
<path opacity="0.7" fill-rule="evenodd" clip-rule="evenodd" d="M92.9232 81.3684C93.1298 81.1649 93.4622 81.1675 93.6657 81.374L95.6316 83.3698C95.8351 83.5764 95.8325 83.9088 95.626 84.1123L85.1887 94.3932C84.9749 94.6038 84.6282 94.5926 84.4285 94.3685L78.3494 87.5502C78.1564 87.3338 78.1754 87.002 78.3919 86.809L80.4829 84.9447C80.6993 84.7517 81.0312 84.7707 81.2241 84.9872L84.6094 88.7841C84.8092 89.0082 85.1559 89.0194 85.3697 88.8088L92.9232 81.3684Z" fill="#BBC1D5"/>
<path opacity="0.5" fill-rule="evenodd" clip-rule="evenodd" d="M92.9232 106.368C93.1298 106.165 93.4622 106.167 93.6657 106.374L95.6316 108.37C95.8351 108.576 95.8325 108.909 95.626 109.112L85.1887 119.393C84.9749 119.604 84.6282 119.593 84.4285 119.369L78.3494 112.55C78.1564 112.334 78.1754 112.002 78.3919 111.809L80.4829 109.945C80.6993 109.752 81.0312 109.771 81.2241 109.987L84.6094 113.784C84.8092 114.008 85.1559 114.019 85.3697 113.809L92.9232 106.368Z" fill="#BBC1D5"/>
<rect opacity="0.7" x="100" y="90" width="21" height="4" rx="0.5" fill="url(#paint9_linear_6126_222839)"/>
<rect opacity="0.5" x="100" y="115" width="21" height="4" rx="0.5" fill="url(#paint10_linear_6126_222839)"/>
<path d="M154 149C141.297 149 131 138.703 131 126C131 113.297 141.297 103 154 103C166.703 103 177 113.297 177 126C177 138.703 166.703 149 154 149Z" fill="#00BF5C"/>
<path fill-rule="evenodd" clip-rule="evenodd" d="M161.911 119.168C162.117 118.965 162.449 118.967 162.653 119.174L165.219 121.779C165.423 121.986 165.42 122.318 165.214 122.522L152.287 135.255C152.073 135.466 151.726 135.455 151.526 135.231L143.937 126.719C143.744 126.502 143.763 126.17 143.98 125.977L146.71 123.543C146.926 123.35 147.258 123.37 147.451 123.586L151.748 128.405C151.947 128.629 152.294 128.641 152.508 128.43L161.911 119.168Z" fill="url(#paint11_linear_6126_222839)"/>
<path d="M115.724 34.95H104.276C105.953 34.0602 107.32 32.6142 108.1 30.7956C108.816 29.1248 111.184 29.1248 111.9 30.7956C112.68 32.6142 114.047 34.0602 115.724 34.95Z" stroke="url(#paint12_linear_6126_222839)" stroke-width="12.1"/>
<mask id="mask1_6126_222839" style="mask-type:alpha" maskUnits="userSpaceOnUse" x="91" y="23" width="38" height="18">
<path d="M115.724 34.95H104.276C105.953 34.0602 107.32 32.6142 108.1 30.7956C108.816 29.1248 111.184 29.1248 111.9 30.7956C112.68 32.6142 114.047 34.0602 115.724 34.95Z" stroke="url(#paint13_linear_6126_222839)" stroke-width="12.1"/>
</mask>
<g mask="url(#mask1_6126_222839)">
<rect opacity="0.4" x="75.5625" y="32.4814" width="62.6875" height="12.8889" fill="url(#paint14_linear_6126_222839)"/>
</g>
<circle cx="110.001" cy="28.2" r="2.2" fill="#757B94"/>
<path d="M47.8 76.04C48.453 76.9541 49.4687 77.5095 50.3377 77.8386C50.5599 77.9227 50.5427 78.5632 50.3147 78.63C49.4606 78.8802 48.4661 79.2939 47.8 79.96C47.0321 80.7279 46.5995 82.1897 46.3664 83.3421C46.3195 83.5741 45.8214 83.5915 45.7604 83.3627C45.4555 82.2209 44.9473 80.7632 44.2 79.96C43.5792 79.2928 42.6414 78.8839 41.8094 78.637C41.58 78.5689 41.5494 77.8607 41.7705 77.7692C42.5827 77.4332 43.5149 76.8926 44.2 76.04C44.9974 75.0477 45.4889 73.6914 45.7748 72.6357C45.8366 72.4073 46.3627 72.4148 46.4168 72.6452C46.6641 73.6993 47.093 75.0502 47.8 76.04Z" fill="#D3D9E6"/>
<path d="M170.4 31.7474C171.413 33.1712 173.08 33.9449 174.333 34.3477C174.559 34.4204 174.544 35.0051 174.314 35.0626C173.077 35.3713 171.439 35.9522 170.4 36.9954C169.249 38.1508 168.663 40.4792 168.385 42.0745C168.344 42.3079 167.874 42.3246 167.818 42.0944C167.436 40.5165 166.719 38.2032 165.6 36.9954C164.618 35.9355 163.041 35.3627 161.81 35.0609C161.578 35.004 161.552 34.3645 161.778 34.2853C162.971 33.8668 164.517 33.1006 165.6 31.7474C166.805 30.2414 167.486 28.1091 167.838 26.6469C167.893 26.4166 168.387 26.4237 168.435 26.6556C168.738 28.1172 169.33 30.2436 170.4 31.7474Z" fill="#D3D9E6"/>
<circle cx="159" cy="18" r="1" fill="#D3D9E6"/>
<circle cx="146.5" cy="27.5" r="1.5" fill="#D3D9E6"/>
<defs>
<linearGradient id="paint0_linear_6126_222839" x1="63" y1="34" x2="157" y2="34" gradientUnits="userSpaceOnUse">
<stop stop-color="#CFD4E6"/>
<stop offset="1" stop-color="#DBE0F0"/>
</linearGradient>
<linearGradient id="paint1_linear_6126_222839" x1="63" y1="34" x2="157" y2="34" gradientUnits="userSpaceOnUse">
<stop stop-color="#C0C5D8"/>
<stop offset="1" stop-color="#EBF0FB"/>
</linearGradient>
<linearGradient id="paint2_linear_6126_222839" x1="72" y1="41" x2="148" y2="41" gradientUnits="userSpaceOnUse">
<stop stop-color="#CFD4E4"/>
<stop offset="1" stop-color="#DBE1F2"/>
</linearGradient>
<linearGradient id="paint3_linear_6126_222839" x1="129.417" y1="147.864" x2="151.701" y2="144.374" gradientUnits="userSpaceOnUse">
<stop stop-color="#B6BDD2"/>
<stop offset="1" stop-color="#D7DDEC"/>
</linearGradient>
<linearGradient id="paint4_linear_6126_222839" x1="156.179" y1="113.063" x2="168.102" y2="128.7" gradientUnits="userSpaceOnUse">
<stop offset="0.0198017" stop-color="white"/>
<stop offset="1" stop-color="white" stop-opacity="0.55"/>
</linearGradient>
<linearGradient id="paint5_linear_6126_222839" x1="114.914" y1="58.4118" x2="132.114" y2="67.4445" gradientUnits="userSpaceOnUse">
<stop stop-color="#BBC0D5"/>
<stop offset="1" stop-color="#CDD3E4"/>
</linearGradient>
<linearGradient id="paint6_linear_6126_222839" x1="114.914" y1="83.4118" x2="132.114" y2="92.4445" gradientUnits="userSpaceOnUse">
<stop stop-color="#BBC0D5"/>
<stop offset="1" stop-color="#CDD3E4"/>
</linearGradient>
<linearGradient id="paint7_linear_6126_222839" x1="114.914" y1="108.412" x2="132.114" y2="117.445" gradientUnits="userSpaceOnUse">
<stop stop-color="#BBC0D5"/>
<stop offset="1" stop-color="#CDD3E4"/>
</linearGradient>
<linearGradient id="paint8_linear_6126_222839" x1="108.7" y1="66.4118" x2="120.402" y2="69.9967" gradientUnits="userSpaceOnUse">
<stop stop-color="#BBC0D5"/>
<stop offset="1" stop-color="#CDD3E4"/>
</linearGradient>
<linearGradient id="paint9_linear_6126_222839" x1="108.7" y1="91.4118" x2="120.402" y2="94.9967" gradientUnits="userSpaceOnUse">
<stop stop-color="#BBC0D5"/>
<stop offset="1" stop-color="#CDD3E4"/>
</linearGradient>
<linearGradient id="paint10_linear_6126_222839" x1="108.7" y1="116.412" x2="120.402" y2="119.997" gradientUnits="userSpaceOnUse">
<stop stop-color="#BBC0D5"/>
<stop offset="1" stop-color="#CDD3E4"/>
</linearGradient>
<linearGradient id="paint11_linear_6126_222839" x1="150.29" y1="121.515" x2="159.285" y2="138.737" gradientUnits="userSpaceOnUse">
<stop offset="0.0198017" stop-color="white"/>
<stop offset="1" stop-color="white" stop-opacity="0.55"/>
</linearGradient>
<linearGradient id="paint12_linear_6126_222839" x1="91.5" y1="30.25" x2="128.5" y2="30.25" gradientUnits="userSpaceOnUse">
<stop stop-color="#CBD1E7"/>
<stop offset="1" stop-color="#DDE3F1"/>
</linearGradient>
<linearGradient id="paint13_linear_6126_222839" x1="91.5" y1="30.25" x2="128.5" y2="30.25" gradientUnits="userSpaceOnUse">
<stop stop-color="#BEC2D0"/>
<stop offset="1" stop-color="#DBE0F1"/>
</linearGradient>
<linearGradient id="paint14_linear_6126_222839" x1="106.906" y1="32.4814" x2="106.906" y2="45.3703" gradientUnits="userSpaceOnUse">
<stop stop-color="#868FAE" stop-opacity="0"/>
<stop offset="1" stop-color="#61677C"/>
</linearGradient>
</defs>
</svg>

<svg width="220" height="160" viewBox="0 0 220 160" fill="none" xmlns="http://www.w3.org/2000/svg"><rect x="63" y="34" width="94" height="110" rx="12" fill="url(#paint0_linear_6126_222839)"/><mask id="mask0_6126_222839" style="mask-type:alpha" maskUnits="userSpaceOnUse" x="63" y="34" width="94" height="110"><rect x="63" y="34" width="94" height="110" rx="12" fill="url(#paint1_linear_6126_222839)"/></mask><g mask="url(#mask0_6126_222839)"><path fill="url(#paint2_linear_6126_222839)" stroke="#fff" stroke-width=".917" d="M72.458 41.458H147.541V135.541H72.458z"/><path opacity=".8" d="M154 156c-16.569 0-30-13.431-30-30 0-16.569 13.431-30 30-30 16.569 0 30 13.431 30 30 0 16.569-13.431 30-30 30z" fill="url(#paint3_linear_6126_222839)"/><path d="M156.667 110.525v12.521c0 .29.235.525.525.525h10.283c.29 0 .525.235.525.525v4.379c0 .29-.235.525-.525.525h-15.95a.525.525 0 0 1-.525-.525v-17.95c0-.29.235-.525.525-.525h4.617c.29 0 .525.235.525.525z" fill="url(#paint4_linear_6126_222839)"/></g><rect x="100" y="57" width="36" height="4" rx=".5" fill="url(#paint5_linear_6126_222839)"/><rect opacity=".7" x="100" y="82" width="36" height="4" rx=".5" fill="url(#paint6_linear_6126_222839)"/><rect opacity=".5" x="100" y="107" width="36" height="4" rx=".5" fill="url(#paint7_linear_6126_222839)"/><rect x="100" y="65" width="21" height="4" rx=".5" fill="url(#paint8_linear_6126_222839)"/><path fill-rule="evenodd" clip-rule="evenodd" d="M92.923 54.368a.525.525 0 0 1 .743.006l1.966 1.996c.203.206.2.539-.006.742L85.189 67.393c-.214.21-.56.2-.76-.025l-6.08-6.818a.525.525 0 0 1 .043-.741l2.09-1.864a.525.525 0 0 1 .742.042l3.385 3.797c.2.224.547.235.76.025l7.554-7.44z" fill="#BBC1D5"/><path opacity=".7" fill-rule="evenodd" clip-rule="evenodd" d="M92.923 81.368a.525.525 0 0 1 .743.006l1.966 1.996c.203.206.2.539-.006.742L85.189 94.393c-.214.21-.56.2-.76-.025l-6.08-6.818a.525.525 0 0 1 .043-.741l2.09-1.864a.525.525 0 0 1 .742.042l3.385 3.797c.2.224.547.235.76.025l7.554-7.44z" fill="#BBC1D5"/><path opacity=".5" fill-rule="evenodd" clip-rule="evenodd" d="M92.923 106.368a.525.525 0 0 1 .743.006l1.966 1.996c.203.206.2.539-.006.742l-10.437 10.281a.525.525 0 0 1-.76-.024l-6.08-6.819a.525.525 0 0 1 .043-.741l2.09-1.864a.525.525 0 0 1 .742.042l3.385 3.797c.2.224.547.235.76.025l7.554-7.441z" fill="#BBC1D5"/><rect opacity=".7" x="100" y="90" width="21" height="4" rx=".5" fill="url(#paint9_linear_6126_222839)"/><rect opacity=".5" x="100" y="115" width="21" height="4" rx=".5" fill="url(#paint10_linear_6126_222839)"/><path d="M154 149c-12.703 0-23-10.297-23-23s10.297-23 23-23 23 10.297 23 23-10.297 23-23 23z" fill="#00BF5C"/><path fill-rule="evenodd" clip-rule="evenodd" d="M161.911 119.168a.525.525 0 0 1 .742.006l2.566 2.605a.526.526 0 0 1-.005.743l-12.927 12.733a.526.526 0 0 1-.761-.024l-7.589-8.512a.525.525 0 0 1 .043-.742l2.73-2.434a.525.525 0 0 1 .741.043l4.297 4.819a.524.524 0 0 0 .76.025l9.403-9.262z" fill="url(#paint11_linear_6126_222839)"/><path d="M115.724 34.95h-11.448a8.486 8.486 0 0 0 3.824-4.154c.716-1.671 3.084-1.671 3.8 0a8.486 8.486 0 0 0 3.824 4.154z" stroke="url(#paint12_linear_6126_222839)" stroke-width="12.1"/><mask id="mask1_6126_222839" style="mask-type:alpha" maskUnits="userSpaceOnUse" x="91" y="23" width="38" height="18"><path d="M115.724 34.95h-11.448a8.486 8.486 0 0 0 3.824-4.154c.716-1.671 3.084-1.671 3.8 0a8.486 8.486 0 0 0 3.824 4.154z" stroke="url(#paint13_linear_6126_222839)" stroke-width="12.1"/></mask><g mask="url(#mask1_6126_222839)"><path opacity=".4" fill="url(#paint14_linear_6126_222839)" d="M75.563 32.481H138.251V45.370000000000005H75.563z"/></g><circle cx="110.001" cy="28.2" r="2.2" fill="#757B94"/><path d="M47.8 76.04c.653.914 1.669 1.47 2.538 1.799.222.084.205.724-.023.791-.854.25-1.849.664-2.515 1.33-.768.768-1.2 2.23-1.434 3.382-.047.232-.545.25-.606.02-.304-1.141-.813-2.599-1.56-3.402-.62-.667-1.559-1.076-2.39-1.323-.23-.068-.26-.776-.04-.868.813-.336 1.745-.876 2.43-1.729.797-.992 1.289-2.349 1.575-3.404.062-.229.588-.221.642.01.247 1.053.676 2.404 1.383 3.394zM170.4 31.747c1.013 1.424 2.68 2.198 3.933 2.6.226.073.211.658-.019.716-1.237.308-2.875.89-3.914 1.932-1.151 1.156-1.737 3.484-2.015 5.08-.041.233-.511.25-.567.02-.382-1.578-1.099-3.892-2.218-5.1-.982-1.06-2.559-1.632-3.79-1.934-.232-.057-.258-.697-.032-.776 1.193-.418 2.739-1.184 3.822-2.538 1.205-1.506 1.886-3.638 2.238-5.1.055-.23.549-.223.597.009.303 1.461.895 3.588 1.965 5.091z" fill="#D3D9E6"/><circle cx="159" cy="18" r="1" fill="#D3D9E6"/><circle cx="146.5" cy="27.5" r="1.5" fill="#D3D9E6"/><defs><linearGradient id="paint0_linear_6126_222839" x1="63" y1="34" x2="157" y2="34" gradientUnits="userSpaceOnUse"><stop stop-color="#CFD4E6"/><stop offset="1" stop-color="#DBE0F0"/></linearGradient><linearGradient id="paint1_linear_6126_222839" x1="63" y1="34" x2="157" y2="34" gradientUnits="userSpaceOnUse"><stop stop-color="#C0C5D8"/><stop offset="1" stop-color="#EBF0FB"/></linearGradient><linearGradient id="paint2_linear_6126_222839" x1="72" y1="41" x2="148" y2="41" gradientUnits="userSpaceOnUse"><stop stop-color="#CFD4E4"/><stop offset="1" stop-color="#DBE1F2"/></linearGradient><linearGradient id="paint3_linear_6126_222839" x1="129.417" y1="147.864" x2="151.701" y2="144.374" gradientUnits="userSpaceOnUse"><stop stop-color="#B6BDD2"/><stop offset="1" stop-color="#D7DDEC"/></linearGradient><linearGradient id="paint4_linear_6126_222839" x1="156.179" y1="113.063" x2="168.102" y2="128.7" gradientUnits="userSpaceOnUse"><stop offset=".02" stop-color="#fff"/><stop offset="1" stop-color="#fff" stop-opacity=".55"/></linearGradient><linearGradient id="paint5_linear_6126_222839" x1="114.914" y1="58.412" x2="132.114" y2="67.445" gradientUnits="userSpaceOnUse"><stop stop-color="#BBC0D5"/><stop offset="1" stop-color="#CDD3E4"/></linearGradient><linearGradient id="paint6_linear_6126_222839" x1="114.914" y1="83.412" x2="132.114" y2="92.445" gradientUnits="userSpaceOnUse"><stop stop-color="#BBC0D5"/><stop offset="1" stop-color="#CDD3E4"/></linearGradient><linearGradient id="paint7_linear_6126_222839" x1="114.914" y1="108.412" x2="132.114" y2="117.445" gradientUnits="userSpaceOnUse"><stop stop-color="#BBC0D5"/><stop offset="1" stop-color="#CDD3E4"/></linearGradient><linearGradient id="paint8_linear_6126_222839" x1="108.7" y1="66.412" x2="120.402" y2="69.997" gradientUnits="userSpaceOnUse"><stop stop-color="#BBC0D5"/><stop offset="1" stop-color="#CDD3E4"/></linearGradient><linearGradient id="paint9_linear_6126_222839" x1="108.7" y1="91.412" x2="120.402" y2="94.997" gradientUnits="userSpaceOnUse"><stop stop-color="#BBC0D5"/><stop offset="1" stop-color="#CDD3E4"/></linearGradient><linearGradient id="paint10_linear_6126_222839" x1="108.7" y1="116.412" x2="120.402" y2="119.997" gradientUnits="userSpaceOnUse"><stop stop-color="#BBC0D5"/><stop offset="1" stop-color="#CDD3E4"/></linearGradient><linearGradient id="paint11_linear_6126_222839" x1="150.29" y1="121.515" x2="159.285" y2="138.737" gradientUnits="userSpaceOnUse"><stop offset=".02" stop-color="#fff"/><stop offset="1" stop-color="#fff" stop-opacity=".55"/></linearGradient><linearGradient id="paint12_linear_6126_222839" x1="91.5" y1="30.25" x2="128.5" y2="30.25" gradientUnits="userSpaceOnUse"><stop stop-color="#CBD1E7"/><stop offset="1" stop-color="#DDE3F1"/></linearGradient><linearGradient id="paint13_linear_6126_222839" x1="91.5" y1="30.25" x2="128.5" y2="30.25" gradientUnits="userSpaceOnUse"><stop stop-color="#BEC2D0"/><stop offset="1" stop-color="#DBE0F1"/></linearGradient><linearGradient id="paint14_linear_6126_222839" x1="106.906" y1="32.481" x2="106.906" y2="45.37" gradientUnits="userSpaceOnUse"><stop stop-color="#868FAE" stop-opacity="0"/><stop offset="1" stop-color="#61677C"/></linearGradient></defs></svg>
